!!!COM:	la Rue, Pierre de
!!!CDT:	~1452///-1518/11/20
!!!OPR:	Missa Ave sanctissima Maria
!!!ONM:	3
!!!OTL:	Credo
!!!AGN:	Mass; Credo
!!!SCT:	Rue1005c
!!!SCA:	Rue1005c
!!!voices:	6
!!!voices-OPR:	6(-5)
**kern	**kern	**kern	**kern	**kern	**kern
*staff6	*staff5	*staff4	*staff3	*staff2	*staff1
*Ivox	*Ivox	*Ivox	*Ivox	*Ivox	*Ivox
*I"Bassus2	*I"Bassus1	*I"Contra2	*I"Contra1	*I"Discantus2	*I"Discantus1
*I'B2	*I'B1	*I'C2	*I'C1	*I'D2	*I'D1
*>[A,B,C,D,E]	*>[A,B,C,D,E]	*>[A,B,C,D,E]	*>[A,B,C,D,E]	*>[A,B,C,D,E]	*>[A,B,C,D,E]
*>A	*>A	*>A	*>A	*>A	*>A
*clefF4	*clefF4	*clefGv2	*clefGv2	*clefG2	*clefG2
*k[]	*k[]	*k[]	*k[]	*k[]	*k[]
*M2/1	*M2/1	*M2/1	*M2/1	*M2/1	*M2/1
*met(C)	*met(C)	*met(C)	*met(C)	*met(C)	*met(C)
!!section: Patrem omnipotentem
!!!OMD: Patrem omnipotentem
=1-	=1-	=1-	=1-	=1-	=1-
!	!	!	!	!	!LO:TX:X=-40:Z=8:t=6-ex-3 canon at the upper fourth (B2-->B1, C2-->C1, D2-->D1)
1G	0r	1G	0r	1g	0r
1G	.	2G/	.	1g	.
.	.	[2E/	.	.	.
=2	=2	=2	=2	=2	=2
1C	1c	2E/]	1c	1e	1cc
.	.	2C/	.	.	.
1C	1c	1E	2c\	1c	1cc
.	.	.	[2A/	.	.
=3	=3	=3	=3	=3	=3
1D	1F	2F/	2A/]	1.f	1a
.	.	2D/	2F/	.	.
1D	1F	[1D	1A	.	1f
.	.	.	.	2d/	.
=4	=4	=4	=4	=4	=4
0GG	1G	1D]	2B-i\	1d	1.b-i
.	.	.	2G/	.	.
.	1G	1D	[1G	2r	.
.	.	.	.	[2g/	2g/
=5	=5	=5	=5	=5	=5
1G	0C	2r	1G]	2g/]	1g
.	.	2G/	.	2g/	.
2G\	.	2G/	1G	1g	2r
2G\	.	[2E/	.	.	[2cc\
=6	=6	=6	=6	=6	=6
1C	1c	2E/]	2r	1e	2cc\]
.	.	2C/	2c\	.	2cc\
1C	2c\	1E	2c\	1c	1cc
.	2c\	.	[2A/	.	.
=7	=7	=7	=7	=7	=7
1.D	1F	2F/	2A/]	1.f	1a
.	.	2D/	2F/	.	.
.	1F	[1Dl	1A	.	1f
2GG/	.	.	.	2d/	.
=8	=8	=8	=8	=8	=8
[0GGl	[0Gl	0D_	[0B-il	[0dl	1.b-i
.	.	.	.	.	2g/
=9	=9	=9	=9	=9	=9
0GG]	0G]	0D]	0B-]	0d]	0gl
!!LO:LB:i:g=z
=10||	=10||	=10||	=10||	=10||	=10||
*>B	*>B	*>B	*>B	*>B	*>B
*clefF4	*clefF4	*clefGv2	*clefGv2	*clefG2	*clefG2
*k[]	*k[]	*k[]	*k[]	*k[]	*k[]
*M2/1	*M2/1	*M2/1	*M2/1	*M2/1	*M2/1
*met(C)	*met(C)	*met(C)	*met(C)	*met(C)	*met(C)
!!section: Visibilium omnium
!!!OMD: Visibilium omnium
1G	0r	0r	0r	1g	0r
2G\	.	.	.	2g/	.
[2E\	.	.	.	[2g/	.
=11	=11	=11	=11	=11	=11
2E\]	0r	0r	0r	2g/]	0r
4D\	.	.	.	4f/	.
4C/	.	.	.	4e/	.
1D	.	.	.	1f	.
=12	=12	=12	=12	=12	=12
2C/	0r	1c	0r	2e/	0r
2C/	.	.	.	2e/	.
2.C/	.	2c\	.	4e/	.
.	.	.	.	4d/	.
.	.	[2c\	.	4e/	.
4D\	.	.	.	4f/	.
=13	=13	=13	=13	=13	=13
2E\	0r	2c\]	0r	2g/	0r
2F\	.	4B\	.	1a	.
.	.	4A/	.	.	.
1E	.	1B	.	.	.
.	.	.	.	2g#i/	.
=14	=14	=14	=14	=14	=14
0AA	1c	0A	0r	0a	1cc
.	2c\	.	.	.	2cc\
.	[2A\	.	.	.	[2cc\
=15	=15	=15	=15	=15	=15
0r	2A\]	0r	0r	0r	2cc\]
.	4G\	.	.	.	4b\
.	4F\	.	.	.	4a/
.	1G	.	.	.	1b
=16	=16	=16	=16	=16	=16
0r	2F\	0r	1f	1r	2a/
.	2F\	.	.	.	2a/
.	2.F\	.	2f\	2r	4a/
.	.	.	.	.	4g/
.	.	.	[2f\	2a/	4a/
.	4G\	.	.	.	4b\
=17	=17	=17	=17	=17	=17
0r	2A\	1r	2f\]	2a/	2cc\
.	2B-i\	.	4e\	2g/	1dd
.	.	.	4d\	.	.
.	1A	2.A/	1e	1a	.
.	.	.	.	.	2cc#i\
.	.	4A/	.	.	.
=18	=18	=18	=18	=18	=18
0r	0D	2A/	0d	2a/	0dd
.	.	2A/	.	1f	.
.	.	2D/	.	.	.
.	.	[2d\	.	4e/	.
.	.	.	.	4d/	.
=19	=19	=19	=19	=19	=19
0r	0r	4d\]	0r	1e	0r
.	.	4c\	.	.	.
.	.	2c\	.	.	.
.	.	2d\	.	2d/	.
.	.	2B\	.	[2g/	.
=20	=20	=20	=20	=20	=20
0r	0r	1A	0r	2g/]	1r
.	.	.	.	2f/	.
.	.	1G	.	4g/	2r
.	.	.	.	4f/	.
.	.	.	.	4e/	2dd\
.	.	.	.	4d/	.
=21	=21	=21	=21	=21	=21
0r	0r	0r	1r	1e	2dd\
.	.	.	.	.	2cc\
.	.	.	2.d\	1f	1dd
.	.	.	4d\	.	.
=22	=22	=22	=22	=22	=22
2.G\	0r	0r	2d\	0d	2dd\
.	.	.	2d\	.	1b
4G\	.	.	.	.	.
2G\	.	.	2G/	.	.
2G\	.	.	[2g\	.	4a/
.	.	.	.	.	4g/
=23	=23	=23	=23	=23	=23
1D	0r	0r	4g\]	0r	1a
.	.	.	4f\	.	.
.	.	.	2f\	.	.
2G\	.	.	2g\	.	2g/
[2A\	.	.	2e\	.	[2cc\
=24	=24	=24	=24	=24	=24
2A\]	0r	0r	1d	0r	2cc\]
2G\	.	.	.	.	2b\
4A\	.	.	1c	.	4cc\
4G\	.	.	.	.	4b\
4F\	.	.	.	.	4a/
4E\	.	.	.	.	4g/
=25	=25	=25	=25	=25	=25
2F\	0r	0r	0r	2.d/	1a
4G\	.	.	.	.	.
4F\	.	.	.	4d/	.
1G	.	.	.	2d/	1b
.	.	.	.	2d/	.
=26	=26	=26	=26	=26	=26
0C	2.c\	0r	0r	1e	0g
.	4c\	.	.	.	.
.	2c\	.	.	2e/	.
.	2c\	.	.	2e/	.
=27	=27	=27	=27	=27	=27
1r	1G	0r	0r	2.e/	0r
.	.	.	.	4f/	.
2r	2c\	.	.	4g/	.
.	.	.	.	4e/	.
2D\	[2d\	.	.	[2a/	.
=28	=28	=28	=28	=28	=28
2E\	2d\]	2r	0r	4a/]	0r
.	.	.	.	4g/	.
2E\	2c\	2G/	.	1g	.
2D\	4d\	2A/	.	.	.
.	4c\	.	.	.	.
2D\	4B\	2A/	.	2f#i/	.
.	4A\	.	.	.	.
=29	=29	=29	=29	=29	=29
1GG	2B\	2G/	0r	0g	2.g/
.	4c\	2G/	.	.	.
.	4B\	.	.	.	4g/
1r	1c	1C	.	.	2g/
.	.	.	.	.	2g/
=30	=30	=30	=30	=30	=30
0r	0F	2c\	0r	0r	1a
.	.	2.A/	.	.	.
.	.	.	.	.	2a/
.	.	4B\	.	.	.
.	.	4c\	.	.	2a/
.	.	4A/	.	.	.
=31	=31	=31	=31	=31	=31
0r	1r	2d\	0r	0r	2.a/
.	.	1c	.	.	.
.	.	.	.	.	4b\
.	2r	.	.	.	4cc\
.	.	.	.	.	4a/
.	2G\	2B\	.	.	[2dd\
=32	=32	=32	=32	=32	=32
0r	2A\	1c	2r	1r	4dd\]
.	.	.	.	.	4cc\
.	2A\	.	2c\	.	1cc
.	2G\	1r	2d\	1g	.
.	2G\	.	2d\	.	2b\
=33	=33	=33	=33	=33	=33
0r	1C	1c	2c\	2g/	0cc
.	.	.	2c\	2g/	.
.	1r	2c\	1F	2.a/	.
.	.	2c\	.	.	.
.	.	.	.	4g/	.
=34	=34	=34	=34	=34	=34
0r	0r	2.d\	2f\	1f	0r
.	.	.	2.d\	.	.
.	.	4c\	.	.	.
.	.	1B	.	2r	.
.	.	.	4e\	.	.
.	.	.	4f\	2d/	.
.	.	.	4d\	.	.
=35	=35	=35	=35	=35	=35
0r	0r	2r	2g\	2e/	0r
.	.	2A/	1f	2f/	.
.	.	2B\	.	2.g/	.
.	.	2c\	2e\	.	.
.	.	.	.	4g/	.
=36	=36	=36	=36	=36	=36
0r	0r	2.d\	1f	2f/	1r
.	.	.	.	1a	.
.	.	4d\	.	.	.
.	.	1A	1r	.	1cc
.	.	.	.	2a/	.
=37	=37	=37	=37	=37	=37
0r	0r	2A/	1f	4a/	2cc\
.	.	.	.	4g/	.
.	.	2A/	.	4f/	2cc\
.	.	.	.	4e/	.
.	.	1d	2f\	1d	2.dd\
.	.	.	2f\	.	.
.	.	.	.	.	4cc\
=38	=38	=38	=38	=38	=38
0r	0r	1G	2.g\	0r	1b
.	.	.	4f\	.	.
.	.	1r	1e	.	2r
.	.	.	.	.	2g/
=39	=39	=39	=39	=39	=39
0r	0r	0r	2r	0r	2a/
.	.	.	2d\	.	2b\
.	.	.	2e\	.	2.cc\
.	.	.	2f\	.	.
.	.	.	.	.	4cc\
=40	=40	=40	=40	=40	=40
0GG	0r	0G	2.g\	2r	2b\
.	.	.	.	2g/	1dd
.	.	.	4g\	.	.
.	.	.	1d	[1g	.
.	.	.	.	.	2dd\
=41	=41	=41	=41	=41	=41
1GG	0r	1B	2d\	2g/]	4dd\
.	.	.	.	.	4cc\
.	.	.	2d\	4f/	4b\
.	.	.	.	4e/	4a/
1GG	.	1B	1g	2.d/	1g
.	.	.	.	4B/	.
=42	=42	=42	=42	=42	=42
2.AA/	0r	2A/	1c	4c/	0r
.	.	.	.	4d/	.
.	.	2.c\	.	2.e/	.
4BB/	.	.	.	.	.
4C/	.	.	1r	.	.
4D\	.	4B\	.	4f/	.
2E\	.	[2B\	.	4g/	.
.	.	.	.	4e/	.
=43	=43	=43	=43	=43	=43
4D\	0r	4B\]	0r	4f/	0r
4C/	.	4A/	.	4e/	.
4BB/	.	1A	.	4d/	.
4AA/	.	.	.	4c/	.
1BB	.	.	.	1d	.
.	.	2G#i/	.	.	.
=44	=44	=44	=44	=44	=44
0AA	0C	0A	0c	0c	2r
.	.	.	.	.	2cc\
.	.	.	.	.	[1cc
=45	=45	=45	=45	=45	=45
0r	1C	0r	1e	0r	2cc\]
.	.	.	.	.	4b\
.	.	.	.	.	4a/
.	1C	.	1e	.	2.g/
.	.	.	.	.	4e/
=46	=46	=46	=46	=46	=46
0r	2.D\	0r	2d\	0r	4f/
.	.	.	.	.	4g/
.	.	.	2.f\	.	2.a/
.	4E\	.	.	.	.
.	4F\	.	.	.	.
.	4G\	.	4e\	.	4b\
.	2A\	.	[2e\	.	4cc\
.	.	.	.	.	4a/
=47	=47	=47	=47	=47	=47
0r	4G\	0r	4e\]	0r	4b-i\
.	4F\	.	4d\	.	4a/
.	4E\	.	1d	.	4g/
.	4D\	.	.	.	4f/
.	1E	.	.	.	1g
.	.	.	2c#i\	.	.
=48	=48	=48	=48	=48	=48
1r	0D	2.A/	0d	1r	0f
.	.	4A/	.	.	.
2r	.	2A/	.	2.a/	.
[2D\	.	2A/	.	.	.
.	.	.	.	4a/	.
=49	=49	=49	=49	=49	=49
4D\]	0r	4A/	0r	2a/	0r
4D\	.	4G/	.	.	.
2D\	.	4F/	.	2a/	.
.	.	4E/	.	.	.
2D\	.	2D/	.	4a/	.
.	.	.	.	4g/	.
4D\	.	2D/	.	4f/	.
4C/	.	.	.	4e/	.
=50	=50	=50	=50	=50	=50
4BB/	0r	2G/	0r	2d/	0r
4AA/	.	.	.	.	.
1GG	.	2G/	.	2d/	.
.	.	4G/	.	2g/	.
.	.	4F/	.	.	.
2GG/	.	4E/	.	2g/	.
.	.	4D/	.	.	.
=51	=51	=51	=51	=51	=51
2C/	0r	2C/	0r	4g/	0r
.	.	.	.	4f/	.
2BB/	.	2D/	.	4e/	.
.	.	.	.	4d/	.
2AA/	.	1E	.	2c#i/	.
2AA/	.	.	.	4d/	.
.	.	.	.	4c#i/	.
=52	=52	=52	=52	=52	=52
1.D	1r	0D	2.d\	0d	1r
.	.	.	4d\	.	.
.	2r	.	2d\	.	2.dd\
2GG/	[2G\	.	2d\	.	.
.	.	.	.	.	4dd\
=53	=53	=53	=53	=53	=53
0GG	4G\]	0r	4d\	0r	2dd\
.	4G\	.	4c\	.	.
.	2G\	.	4B\	.	2dd\
.	.	.	4A/	.	.
.	2G\	.	2G/	.	4dd\
.	.	.	.	.	4cc\
.	4G\	.	2G/	.	4b\
.	4F\	.	.	.	4a/
=54	=54	=54	=54	=54	=54
0r	4E\	0r	2c\	0r	2g/
.	4D\	.	.	.	.
.	1C	.	2c\	.	2g/
.	.	.	4c\	.	2cc\
.	.	.	4B\	.	.
.	2C/	.	4A/	.	2cc\
.	.	.	4G/	.	.
=55	=55	=55	=55	=55	=55
0r	2F\	0r	2F/	0r	4cc\
.	.	.	.	.	4b\
.	2E\	.	2G/	.	4a/
.	.	.	.	.	4g/
.	2D\	.	1A	.	2f#i/
.	2D\	.	.	.	4g/
.	.	.	.	.	4f#i/
=56	=56	=56	=56	=56	=56
1r	1.G	0r	0G	0r	0g
[1C	.	.	.	.	.
.	2C/	.	.	.	.
=57	=57	=57	=57	=57	=57
1C]	0C	0G	0r	0e	0r
1C	.	.	.	.	.
=58	=58	=58	=58	=58	=58
1.D	0r	1F	0r	1f	0r
.	.	[1A	.	[1f	.
2D\	.	.	.	.	.
=59	=59	=59	=59	=59	=59
0D	0r	2A/]	0r	2f/]	0r
.	.	2A/	.	2f/	.
.	.	[1A	.	1f	.
=60	=60	=60	=60	=60	=60
1C	1r	1A]	0r	1e	0r
1BB	[1F	1D	.	1d	.
=61	=61	=61	=61	=61	=61
0AA	1F]	0A	0c	2.c/	0a
.	.	.	.	4B/	.
.	1F	.	.	1A	.
=62	=62	=62	=62	=62	=62
[0GG	1.G	[0D	1B	2r	1b
.	.	.	.	2d/	.
.	.	.	[1d	2d/	[1b
.	2G\	.	.	[2d/	.
=63	=63	=63	=63	=63	=63
0GG]	0G	0D]	2d\]	4d/]	2b\]
.	.	.	.	4c/	.
.	.	.	2d\	4B/	2b\
.	.	.	.	4A/	.
.	.	.	[1d	2G/	1b
.	.	.	.	[2d/	.
=64	=64	=64	=64	=64	=64
0r	1F	0r	1d]	2d/]	1a
.	.	.	.	2d/	.
.	1E	.	1G	2e/	1g
.	.	.	.	[2c/	.
=65	=65	=65	=65	=65	=65
0r	0D	0r	0d	2c/]	2.f/
.	.	.	.	4B/	.
.	.	.	.	4A/	4e/
.	.	.	.	1B	1d
=66	=66	=66	=66	=66	=66
1C	[0C	1E	[0G	1c	2r
.	.	.	.	.	2g/
2C/	.	2E/	.	1e	2g/
[2C/	.	[2E/	.	.	[2g/
=67	=67	=67	=67	=67	=67
2C/]	0C]	2E/]	0G]	2e/	4g/]
.	.	.	.	.	4f/
2C/	.	1c	.	1e	4e/
.	.	.	.	.	4d/
[1E	.	.	.	.	2c/
.	.	4B\	.	2e/	[2g/
.	.	4A/	.	.	.
=68	=68	=68	=68	=68	=68
1E]	0r	2G/	0r	1e	2g/]
.	.	2G/	.	.	2g/
1D	.	2F/	.	2f/	2a/
.	.	[2A/	.	[2d/	[2f/
=69	=69	=69	=69	=69	=69
0AA	0r	2A/]	0r	2d/]	2f/]
.	.	4G/	.	4c#i/	4e/
.	.	4F/	.	4B/	4d/
.	.	1E	.	1c#i	1e
=70	=70	=70	=70	=70	=70
0D	1F	0D	1A	0d	1f
.	2F\	.	2A/	.	1a
.	[2F\	.	[2A/	.	.
=71	=71	=71	=71	=71	=71
0r	2F\]	0r	2A/]	0r	2a/
.	2F\	.	1f	.	1a
.	[1A	.	.	.	.
.	.	.	4e\	.	2a/
.	.	.	4d\	.	.
=72	=72	=72	=72	=72	=72
0r	1A]	0r	2c\	0r	1a
.	.	.	2c\	.	.
.	1G	.	2B\	.	2b\
.	.	.	[2d\	.	[2g/
=73	=73	=73	=73	=73	=73
0r	0D	0r	2d\]	0r	2g/]
.	.	.	4c\	.	4f#i/
.	.	.	4B\	.	4e/
.	.	.	1A	.	1f#i
=74	=74	=74	=74	=74	=74
1r	0G	2r	0G	1r	0g
.	.	2G/	.	.	.
1G	.	2G/	.	2r	.
.	.	2G/	.	2g/	.
=75	=75	=75	=75	=75	=75
1G	0r	2.E/	0r	2g/	0r
.	.	.	.	2g/	.
.	.	4F/	.	.	.
1G	.	2G/	.	2.e/	.
.	.	2E/	.	.	.
.	.	.	.	4f/	.
=76	=76	=76	=76	=76	=76
0C	0r	2.c\	0r	2g/	0r
.	.	.	.	2.a/	.
.	.	4B\	.	.	.
.	.	4A/	.	.	.
.	.	4G/	.	4g/	.
.	.	[2A/	.	4f/	.
.	.	.	.	4e/	.
=77	=77	=77	=77	=77	=77
0D	0r	4A/]	0r	2f/	0r
.	.	4G/	.	.	.
.	.	4F/	.	2.e/	.
.	.	4E/	.	.	.
.	.	1F	.	.	.
.	.	.	.	4d/	.
.	.	.	.	2d/	.
=78	=78	=78	=78	=78	=78
[0AA	1r	[0E	2r	0e	1r
.	.	.	2c\	.	.
.	1c	.	2c\	.	2r
.	.	.	2c\	.	2cc\
=79	=79	=79	=79	=79	=79
0AA]	1c	0E]	2.A/	0r	2cc\
.	.	.	.	.	2cc\
.	.	.	4B\	.	.
.	1c	.	2c\	.	2.a/
.	.	.	2A/	.	.
.	.	.	.	.	4b\
=80	=80	=80	=80	=80	=80
0r	0F	0r	2.f\	0r	2cc\
.	.	.	.	.	2.dd\
.	.	.	4e\	.	.
.	.	.	4d\	.	.
.	.	.	4c\	.	4cc\
.	.	.	[2d\	.	4b\
.	.	.	.	.	4a/
=81	=81	=81	=81	=81	=81
0r	0G	0r	4d\]	0r	2b\
.	.	.	4c\	.	.
.	.	.	4B\	.	2.a/
.	.	.	4A/	.	.
.	.	.	1B	.	.
.	.	.	.	.	4g/
.	.	.	.	.	2g/
=82	=82	=82	=82	=82	=82
0r	[0D	1A	[0A	1r	0a
.	.	2A/	.	1a	.
.	.	2A/	.	.	.
=83	=83	=83	=83	=83	=83
1A	0D]	2A/	0A]	2a/	0r
.	.	2F/	.	2a/	.
2A\	.	4F/	.	2a/	.
.	.	4G/	.	.	.
2A\	.	4A/	.	2a/	.
.	.	4B\	.	.	.
=84	=84	=84	=84	=84	=84
2.A\	0r	2.c\	0r	1a	0r
4G\	.	4B\	.	.	.
2F\	.	2A/	.	1a	.
4E\	.	4G/	.	.	.
4D\	.	4F/	.	.	.
=85	=85	=85	=85	=85	=85
2C/	0r	2E/	0r	1.a	0r
1D	.	2D/	.	.	.
.	.	1E	.	.	.
2C#i/	.	.	.	4g/	.
.	.	.	.	4f/	.
=86	=86	=86	=86	=86	=86
1D	0r	1F	1d	1f	1r
1GG	.	2.D/	2d\	1g	1dd
.	.	.	2d\	.	.
.	.	4E/	.	.	.
=87	=87	=87	=87	=87	=87
[0D	1d	[0F	2d\	0f	2dd\
.	.	.	2B\	.	2dd\
.	2d\	.	4B\	.	2dd\
.	.	.	4c\	.	.
.	2d\	.	4d\	.	2dd\
.	.	.	4e\	.	.
=88	=88	=88	=88	=88	=88
0D_	2.d\	0F]	2.f\	0f	1dd
.	4c\	.	4e\	.	.
.	2B\	.	2d\	.	1dd
.	4A\	.	4c\	.	.
.	4G\	.	4B\	.	.
=89	=89	=89	=89	=89	=89
0D]	2F\	0r	2A/	1r	1.dd
.	1G	.	2G/	.	.
.	.	.	1A	1a	.
.	2F#i\	.	.	.	4cc\
.	.	.	.	.	4b\
=90	=90	=90	=90	=90	=90
0r	1G	0G	1B	1.g	1b
.	1C	.	2.G/	.	1cc
.	.	.	.	2g/	.
.	.	.	4A/	.	.
=91	=91	=91	=91	=91	=91
1r	[0G	1G	[0B	1g	0b
1G	.	[1G	.	1g	.
=92	=92	=92	=92	=92	=92
2.G\	0G_	1G]	0B]	1.g	0b
4F\	.	.	.	.	.
2E\	.	1G	.	.	.
2D\	.	.	.	2f/	.
=93	=93	=93	=93	=93	=93
2C/	0G]	1G	0r	2e/	1r
4BB/	.	.	.	4d/	.
4AA/	.	.	.	4c/	.
1BB	.	1G	.	1B	1dd
=94	=94	=94	=94	=94	=94
[0AA	0r	2.C/	0c	0c	1.cc
.	.	4D/	.	.	.
.	.	2E/	.	.	.
.	.	2F/	.	.	2cc\
=95	=95	=95	=95	=95	=95
0AA_	1r	2E/	1c	1c	1cc
.	.	1F	.	.	.
.	1c	.	[1c	1c	1cc
.	.	4E/	.	.	.
.	.	4D/	.	.	.
=96	=96	=96	=96	=96	=96
0AA_	2.c\	1C	1c]	2.e/	1.cc
.	4B\	.	.	8d/L	.
.	.	.	.	8e/J	.
.	2A\	1r	1c	2f/	.
.	2G\	.	.	[2e/	2b\
=97	=97	=97	=97	=97	=97
0AA]	2F\	1r	1c	2e/]	2a/
.	4E\	.	.	2.d/	4g/
.	4D\	.	.	.	4f/
.	1E	1C	1c	.	1e
.	.	.	.	4c#i/	.
.	.	.	.	2c#i/	.
=98	=98	=98	=98	=98	=98
2r	[0D	1.F	2.F/	0d	0f
2D\	.	.	.	.	.
.	.	.	4G/	.	.
2.D\	.	.	2A/	.	.
.	.	2G/	2B-i\	.	.
4E\	.	.	.	.	.
=99	=99	=99	=99	=99	=99
2F\	0D_	2A/	2A/	1d	1f
2.BB-/	.	2.D/	1B-i	.	.
.	.	.	.	1d	1f
4C/	.	4E/	.	.	.
4D\	.	[2F/	4A/	.	.
4E\	.	.	4G/	.	.
=100	=100	=100	=100	=100	=100
2F\	0D_	4F/]	1F	1d	2.a/
.	.	4E/	.	.	.
2FF/	.	4D/	.	.	.
.	.	4C/	.	.	8g/L
.	.	.	.	.	8a/J
2GG/	.	2BB-i/	1r	2d/	2b-i\
2FF/	.	2F/	.	[2d/	[2a/
=101	=101	=101	=101	=101	=101
1GG	0D]	4BB-/	1r	4d/]	2a/]
.	.	4C/	.	4c/	.
.	.	4D/	.	2B/	2.g/
.	.	4E/	.	.	.
1D	.	2F/	1F	1A	.
.	.	.	.	.	4f#i/
.	.	2D/	.	.	2f#i/
=102	=102	=102	=102	=102	=102
[0GGl	2r	[0Dl	1.B-i	[0Gl	[0gl
.	2G\	.	.	.	.
.	2.G\	.	.	.	.
.	.	.	2c\	.	.
.	4A\	.	.	.	.
=103	=103	=103	=103	=103	=103
0GG]	0Bl	0D]	0dl	0G]	0g]
!!LO:LB:i:g=z
=104||	=104||	=104||	=104||	=104||	=104||
*>C	*>C	*>C	*>C	*>C	*>C
*clefF4	*clefF4	*clefGv2	*clefGv2	*clefG2	*clefG2
*k[]	*k[]	*k[]	*k[]	*k[]	*k[]
*M2/1	*M2/1	*M2/1	*M2/1	*M2/1	*M2/1
*met(C2)	*met(C2)	*met(C2)	*met(C2)	*met(C2)	*met(C2)
!!section: Crucifixus
!!!OMD: Crucifixus
!	!	!	!	!LO:TX:X=-40:Z=8:t=Canon at the upper fourth (3 semibreves)	!
0r	0r	0r	0r	1d	0r
.	.	.	.	1e	.
=105.	=105.	=105.	=105.	=105.	=105.
0r	0r	0r	0r	1d	1r
.	.	.	.	1B	1g
=106	=106	=106	=106	=106	=106
0r	0r	0r	0r	2c/	1a
.	.	.	.	2c/	.
.	.	.	.	1B	1g
=107.	=107.	=107.	=107.	=107.	=107.
0r	0r	0r	0r	2c/	1e
.	.	.	.	2.e/	.
.	.	.	.	.	2f/
.	.	.	.	4d/	.
.	.	.	.	2d/	2f/
=108	=108	=108	=108	=108	=108
0r	0r	0r	0r	1e	1e
.	.	.	.	1r	2f/
.	.	.	.	.	[2a/
=109.	=109.	=109.	=109.	=109.	=109.
0r	0r	0r	0r	1e	4a/]
.	.	.	.	.	4g/
.	.	.	.	.	2g/
.	.	.	.	2.f/	1a
.	.	.	.	4d/	.
=110	=110	=110	=110	=110	=110
0r	0r	0r	0r	4e/	1r
.	.	.	.	4f/	.
.	.	.	.	1g	.
.	.	.	.	.	1a
.	.	.	.	2f/	.
=111.	=111.	=111.	=111.	=111.	=111.
0r	0r	0r	0r	2.g/	2.b\
.	.	.	.	4e/	4g/
.	.	.	.	4f/	4a/
.	.	.	.	4e/	4b\
.	.	.	.	4d/	[2cc\
.	.	.	.	4c/	.
=112	=112	=112	=112	=112	=112
0r	0r	0r	0r	1d	2cc\]
.	.	.	.	.	2b\
.	.	.	.	1c	2.cc\
.	.	.	.	.	4a/
=113.	=113.	=113.	=113.	=113.	=113.
0r	0r	0r	0r	1r	4b\
.	.	.	.	.	4a/
.	.	.	.	.	4g/
.	.	.	.	.	4f/
.	.	.	.	2r	1g
.	.	.	.	2c/	.
=114	=114	=114	=114	=114	=114
0r	0r	0r	0r	2.d/	1f
.	.	.	.	4B/	.
.	.	.	.	4c/	1r
.	.	.	.	4d/	.
.	.	.	.	2e/	.
=115.	=115.	=115.	=115.	=115.	=115.
0r	0r	0r	0r	2e/	2r
.	.	.	.	2.d/	2f/
.	.	.	.	.	2.g/
.	.	.	.	4B/	.
.	.	.	.	2c/	.
.	.	.	.	.	4e/
=116	=116	=116	=116	=116	=116
0r	0r	0r	0r	1d	4f/
.	.	.	.	.	4g/
.	.	.	.	.	2a/
.	.	.	.	2r	2a/
.	.	.	.	2B/	[2g/
=117.	=117.	=117.	=117.	=117.	=117.
0r	0r	0r	0r	2c/	4g/]
.	.	.	.	.	4e/
.	.	.	.	2d/	2f/
.	.	.	.	[1e	1g
=118	=118	=118	=118	=118	=118
0r	0r	0r	0r	2e/]	2r
.	.	.	.	2c/	2e/
.	.	.	.	2d/	2f/
.	.	.	.	2e/	2g/
=119.	=119.	=119.	=119.	=119.	=119.
0r	0r	0r	0r	1.f	1.a
.	.	.	.	2d/	2f/
=120	=120	=120	=120	=120	=120
0r	0r	0r	0r	2e/	2g/
.	.	.	.	2f/	2a/
.	.	.	.	2.g/	[1b
.	.	.	.	4f/	.
=121.	=121.	=121.	=121.	=121.	=121.
0r	0r	0r	0r	2d/	2b\]
.	.	.	.	2e/	2g/
.	.	.	.	4d/	2a/
.	.	.	.	4c/	.
.	.	.	.	2B/	2b\
=122	=122	=122	=122	=122	=122
0r	0r	0r	0r	4A/	2.cc\
.	.	.	.	4B/	.
.	.	.	.	4c/	.
.	.	.	.	4d/	4b\
.	.	.	.	2e/	2g/
.	.	.	.	[2d/	2a/
=123.	=123.	=123.	=123.	=123.	=123.
0r	0r	0r	0r	2d/]	4g/
.	.	.	.	.	4f/
.	.	.	.	2c/	2e/
.	.	.	.	2d/	4d/
.	.	.	.	.	4e/
.	.	.	.	4c/	4f/
.	.	.	.	4B/	4g/
=124	=124	=124	=124	=124	=124
0r	0r	0r	0r	4c/	2a/
.	.	.	.	4B/	.
.	.	.	.	4A/	1g
.	.	.	.	4G/	.
.	.	.	.	1A	.
.	.	.	.	.	2f#i/
=125.	=125.	=125.	=125.	=125.	=125.
0r	0r	0r	0r	0Gl	0gl
!!LO:LB:i:g=z
=126||	=126||	=126||	=126||	=126||	=126||
*>D	*>D	*>D	*>D	*>D	*>D
*clefF4	*clefF4	*clefGv2	*clefGv2	*clefG2	*clefG2
*k[]	*k[]	*k[]	*k[]	*k[]	*k[]
*M2/1	*M2/1	*M2/1	*M2/1	*M2/1	*M2/1
*met(C2)	*met(C2)	*met(C2)	*met(C2)	*met(C2)	*met(C2)
!!section: Et resurrexit
!!!OMD: Et resurrexit
!LO:TX:X=-40:Z=8:t=Canon at the upper fourth (3 semibreves)	!	!	!	!	!
1G	0r	0r	0r	0r	0r
2.G\	.	.	.	.	.
4F\	.	.	.	.	.
=127.	=127.	=127.	=127.	=127.	=127.
2E\	1r	0r	0r	0r	0r
2D\	.	.	.	.	.
1C	1c	.	.	.	.
=128	=128	=128	=128	=128	=128
2r	2.c\	0r	0r	0r	0r
1F	.	.	.	.	.
.	4B\	.	.	.	.
.	2A\	.	.	.	.
2E\	2G\	.	.	.	.
=129.	=129.	=129.	=129.	=129.	=129.
2.F\	1F	0r	0r	0r	0r
4E\	.	.	.	.	.
2C/	2r	.	.	.	.
[2D\	[2B-i\	.	.	.	.
=130	=130	=130	=130	=130	=130
2D\]	2B-\]	0r	0r	0r	0r
2C/	2A\	.	.	.	.
2.D\	2.B-i\	.	.	.	.
4C/	4A\	.	.	.	.
=131.	=131.	=131.	=131.	=131.	=131.
2AA/	2F\	0r	0r	0r	0r
2GG/	1G	.	.	.	.
1AA	.	.	.	.	.
.	2F#i\	.	.	.	.
=132	=132	=132	=132	=132	=132
1GG	2.G\	0r	0r	0r	0r
.	4F\	.	.	.	.
2r	2D\	.	.	.	.
[2G\	2C/	.	.	.	.
=133.	=133.	=133.	=133.	=133.	=133.
2G\]	1D	0r	0r	0r	0r
2F\	.	.	.	.	.
4E\	1C	.	.	.	.
4C/	.	.	.	.	.
4E\	.	.	.	.	.
4F\	.	.	.	.	.
=134	=134	=134	=134	=134	=134
2G\	2r	0r	0r	0r	0r
1A	1c	.	.	.	.
2G\	2B\	.	.	.	.
=135.	=135.	=135.	=135.	=135.	=135.
2A\	4A\	0r	0r	0r	0r
.	4F\	.	.	.	.
2A\	4A\	.	.	.	.
.	4B\	.	.	.	.
2A\	2c\	.	.	.	.
4G\	[2d\	.	.	.	.
4F\	.	.	.	.	.
=136	=136	=136	=136	=136	=136
4E\	2d\]	0r	0r	0r	0r
4D\	.	.	.	.	.
2E\	2c\	.	.	.	.
[1D	2d\	.	.	.	.
.	2d\	.	.	.	.
=137.	=137.	=137.	=137.	=137.	=137.
1D]	2d\	0r	0r	0r	0r
.	4c\	.	.	.	.
.	4B\	.	.	.	.
2r	4A\	.	.	.	.
.	4G\	.	.	.	.
2D\	2A\	.	.	.	.
=138	=138	=138	=138	=138	=138
2E\	0G	0r	0r	0r	0r
1C	.	.	.	.	.
2BB/	.	.	.	.	.
=139.	=139.	=139.	=139.	=139.	=139.
4C/	2r	0r	0r	0r	0r
4D\	.	.	.	.	.
4E\	2G\	.	.	.	.
8D\L	.	.	.	.	.
8E\J	.	.	.	.	.
2F\	2A\	.	.	.	.
[2D\	[2F\	.	.	.	.
=140	=140	=140	=140	=140	=140
2D\]	2F\]	0r	0r	0r	0r
2C/	2E\	.	.	.	.
1D	4F\	.	.	.	.
.	4G\	.	.	.	.
.	4A\	.	.	.	.
.	8G\L	.	.	.	.
.	8A\J	.	.	.	.
=141.	=141.	=141.	=141.	=141.	=141.
1GG	2B\	0r	0r	0r	0r
.	1G	.	.	.	.
2r	.	.	.	.	.
2D\	2F\	.	.	.	.
=142	=142	=142	=142	=142	=142
2E\	1G	0r	0r	0r	0r
1G	.	.	.	.	.
.	1C	.	.	.	.
4F\	.	.	.	.	.
4E\	.	.	.	.	.
=143.	=143.	=143.	=143.	=143.	=143.
2F\	2r	0r	0r	0r	0r
1E	2G\	.	.	.	.
.	2A\	.	.	.	.
[2A\	[2c\	.	.	.	.
=144	=144	=144	=144	=144	=144
2A\]	2c\]	0r	0r	0r	0r
4G\	4B\	.	.	.	.
4F\	4A\	.	.	.	.
2G\	2B\	.	.	.	.
[2A\	[2A\	.	.	.	.
=145.	=145.	=145.	=145.	=145.	=145.
2A\]	2A\]	0r	0r	0r	0r
1F	1d	.	.	.	.
4E\	4c\	.	.	.	.
4D\	4B\	.	.	.	.
=146	=146	=146	=146	=146	=146
2E\	2c\	0r	0r	0r	0r
1D	1d	.	.	.	.
[2G\	[2B\	.	.	.	.
=147.	=147.	=147.	=147.	=147.	=147.
2G\]	2B\]	0r	0r	0r	0r
4F\	4A\	.	.	.	.
4E\	4G\	.	.	.	.
2F\	2A\	.	.	.	.
2G\	[2G\	.	.	.	.
=148	=148	=148	=148	=148	=148
4C/	2G\]	0r	0r	0r	0r
4D\	.	.	.	.	.
4E\	1c	.	.	.	.
4F\	.	.	.	.	.
2E\	.	.	.	.	.
[2D\	4B\	.	.	.	.
.	4A\	.	.	.	.
=149.	=149.	=149.	=149.	=149.	=149.
2D\]	2B\	0r	0r	0r	0r
2C/	2c\	.	.	.	.
2.D\	4F\	.	.	.	.
.	4G\	.	.	.	.
.	4A\	.	.	.	.
4BB/	4B\	.	.	.	.
=150	=150	=150	=150	=150	=150
4C/	2A\	0r	0r	0r	0r
4BB/	.	.	.	.	.
4AA/	1G	.	.	.	.
4GG/	.	.	.	.	.
1AA	.	.	.	.	.
.	2F#i\	.	.	.	.
=151.	=151.	=151.	=151.	=151.	=151.
0GGl	0Gl	0r	0r	0r	0r
!!LO:LB:i:g=z
=152||	=152||	=152||	=152||	=152||	=152||
*>E	*>E	*>E	*>E	*>E	*>E
*clefF4	*clefF4	*clefGv2	*clefGv2	*clefG2	*clefG2
*k[]	*k[]	*k[]	*k[]	*k[]	*k[]
*M2/1	*M2/1	*M2/1	*M2/1	*M2/1	*M2/1
*met(C2)	*met(C2)	*met(C2)	*met(C2)	*met(C2)	*met(C2)
!!section: Et iterum venturus est
!!!OMD: Et iterum venturus est
!	!	!	!	!	!LO:TX:X=-40:Z=8:t=6-ex-3 canon at the upper fourth (B2-->B1, C2-->C1, D2-->D1)
1G	0r	1G	0r	0r	0r
2G\	.	2G/	.	.	.
2F\	.	2A/	.	.	.
=153.	=153.	=153.	=153.	=153.	=153.
2G\	0r	2B\	0r	0r	0r
2E\	.	2G/	.	.	.
2F\	.	2A/	.	.	.
2G\	.	2B\	.	.	.
=154	=154	=154	=154	=154	=154
1C	1c	1c	1c	0r	0r
1r	2c\	1r	2c\	.	.
.	2B\	.	2d\	.	.
=155.	=155.	=155.	=155.	=155.	=155.
0r	2c\	0r	2e\	0r	0r
.	2A\	.	2c\	.	.
.	2B\	.	2d\	.	.
.	2c\	.	2e\	.	.
=156	=156	=156	=156	=156	=156
1A	1F	0r	1f	2A/	0r
.	.	.	.	4A/	.
.	.	.	.	4B/	.
2A\	1r	.	1r	4c/	.
.	.	.	.	4d/	.
2G\	.	.	.	2e/	.
=157.	=157.	=157.	=157.	=157.	=157.
1F	0r	0r	0r	2A/	0r
.	.	.	.	2.d/	.
1E	.	.	.	.	.
.	.	.	.	4c#i/	.
.	.	.	.	2c#i/	.
=158	=158	=158	=158	=158	=158
[0D	1d	0r	0r	[0d	2d/
.	.	.	.	.	4d/
.	.	.	.	.	4e/
.	2d\	.	.	.	4f/
.	.	.	.	.	4g/
.	2c\	.	.	.	2a/
=159.	=159.	=159.	=159.	=159.	=159.
0D]	1B	0r	0r	0d]	2d/
.	.	.	.	.	2.g/
.	1A	.	.	.	.
.	.	.	.	.	4f#i/
.	.	.	.	.	2f#i/
=160	=160	=160	=160	=160	=160
0r	[0G	1d	0r	0r	[0g
.	.	2d\	.	.	.
.	.	2d\	.	.	.
=161.	=161.	=161.	=161.	=161.	=161.
0r	0G]	2.B\	0r	0r	0g]
.	.	4A/	.	.	.
.	.	1G	.	.	.
=162	=162	=162	=162	=162	=162
0r	0r	2r	1g	0r	0r
.	.	1c	.	.	.
.	.	.	2g\	.	.
.	.	2c\	2g\	.	.
=163.	=163.	=163.	=163.	=163.	=163.
0r	0r	2c\	2.e\	0r	0r
.	.	2.A/	.	.	.
.	.	.	4d\	.	.
.	.	.	1c	.	.
.	.	4G/	.	.	.
.	.	4F/	.	.	.
.	.	4E/	.	.	.
=164	=164	=164	=164	=164	=164
0r	0r	0D	2r	1a	0r
.	.	.	1f	.	.
.	.	.	.	2a/	.
.	.	.	2f\	2a/	.
=165.	=165.	=165.	=165.	=165.	=165.
0r	0r	0r	2f\	2.f/	0r
.	.	.	2.d\	.	.
.	.	.	.	4e/	.
.	.	.	.	1d	.
.	.	.	4c\	.	.
.	.	.	4B\	.	.
.	.	.	4A/	.	.
=166	=166	=166	=166	=166	=166
0r	0r	0r	0G	2r	1dd
.	.	.	.	1g	.
.	.	.	.	.	2dd\
.	.	.	.	2g/	2dd\
=167.	=167.	=167.	=167.	=167.	=167.
0r	0r	0r	0r	2g/	2.b\
.	.	.	.	2.e/	.
.	.	.	.	.	4a/
.	.	.	.	.	1g
.	.	.	.	4d/	.
.	.	.	.	4c/	.
.	.	.	.	4B/	.
=168	=168	=168	=168	=168	=168
1A	0r	0r	0r	0A	2r
.	.	.	.	.	1cc
2A\	.	.	.	.	.
2A\	.	.	.	.	2cc\
=169.	=169.	=169.	=169.	=169.	=169.
2.F\	0r	0r	0r	0r	2cc\
.	.	.	.	.	2.a/
4E\	.	.	.	.	.
1D	.	.	.	.	.
.	.	.	.	.	4g/
.	.	.	.	.	4f/
.	.	.	.	.	4e/
=170	=170	=170	=170	=170	=170
2r	1d	0r	0r	0r	0d
1G	.	.	.	.	.
.	2d\	.	.	.	.
2F\	2d\	.	.	.	.
=171.	=171.	=171.	=171.	=171.	=171.
2G\	2.B\	0r	0r	0r	0r
2.E\	.	.	.	.	.
.	4A\	.	.	.	.
.	1G	.	.	.	.
4D\	.	.	.	.	.
4C/	.	.	.	.	.
4BB/	.	.	.	.	.
=172	=172	=172	=172	=172	=172
2.AA/	2r	0r	0r	0r	0r
.	1c	.	.	.	.
4BB/	.	.	.	.	.
4C/	.	.	.	.	.
4D\	.	.	.	.	.
2E\	2B\	.	.	.	.
=173.	=173.	=173.	=173.	=173.	=173.
2AA/	2c\	0r	0r	0r	0r
1D	2.A\	.	.	.	.
.	4G\	.	.	.	.
2C/	4F\	.	.	.	.
.	4E\	.	.	.	.
=174	=174	=174	=174	=174	=174
2D\	2.D\	2r	0r	0r	0r
2BB/	.	1d	.	.	.
.	4E\	.	.	.	.
1AA	4F\	.	.	.	.
.	4G\	.	.	.	.
.	2A\	2c\	.	.	.
=175.	=175.	=175.	=175.	=175.	=175.
0r	2D\	2d\	0r	0r	0r
.	1G	2B\	.	.	.
.	.	1A	.	.	.
.	2F\	.	.	.	.
=176	=176	=176	=176	=176	=176
1r	2G\	0r	2r	0r	0r
.	2E\	.	1g	.	.
2r	1D	.	.	.	.
2D\	.	.	2f\	.	.
=177.	=177.	=177.	=177.	=177.	=177.
2E\	0r	2r	2g\	0r	0r
2C/	.	1A	2e\	.	.
1BB	.	.	1d	.	.
.	.	2G/	.	.	.
=178	=178	=178	=178	=178	=178
1AA	1r	2A/	0r	0r	0r
.	.	2F/	.	.	.
1r	2r	1E	.	.	.
.	2G\	.	.	.	.
=179.	=179.	=179.	=179.	=179.	=179.
0r	2A\	1D	2r	0r	0r
.	2F\	.	1d	.	.
.	1E	1r	.	.	.
.	.	.	2c\	.	.
=180	=180	=180	=180	=180	=180
1r	1D	0r	2d\	2r	0r
.	.	.	2B\	2d/	.
2r	1r	.	1A	2e/	.
2D\	.	.	.	2f/	.
=181.	=181.	=181.	=181.	=181.	=181.
2E\	0r	0r	1G	2g/	0r
2C/	.	.	.	2e/	.
1BB	.	.	1r	4g/	.
.	.	.	.	4f/	.
.	.	.	.	4e/	.
.	.	.	.	4d/	.
=182	=182	=182	=182	=182	=182
2AA/	1r	0r	0r	2.c/	2r
1C	.	.	.	.	2g/
.	.	.	.	4d/	.
.	2r	.	.	4e/	2a/
.	.	.	.	4f/	.
2BB/	2G\	.	.	[2e/	2b\
=183.	=183.	=183.	=183.	=183.	=183.
1AA	2A\	0r	0r	2e/]	2cc\
.	2F\	.	.	1d	2a/
1AA	1E	.	.	.	4cc\
.	.	.	.	.	4b\
.	.	.	.	2c#i/	4a/
.	.	.	.	.	4g/
=184	=184	=184	=184	=184	=184
0D	2D\	2r	0r	[0d	2.f/
.	1F	1d	.	.	.
.	.	.	.	.	4g/
.	.	.	.	.	4a/
.	.	.	.	.	4b-i\
.	2E\	2c\	.	.	[2a/
=185.	=185.	=185.	=185.	=185.	=185.
0r	1D	2B\	0r	0d]	2a/]
.	.	4A/	.	.	1g
.	.	4G/	.	.	.
.	1D	1A	.	.	.
.	.	.	.	.	2f#i/
=186	=186	=186	=186	=186	=186
0r	0G	1G	2r	0r	[0g
.	.	.	1g	.	.
.	.	1G	.	.	.
.	.	.	2f\	.	.
=187.	=187.	=187.	=187.	=187.	=187.
0r	0r	1G	2e\	0r	0g]
.	.	.	4d\	.	.
.	.	.	4c\	.	.
.	.	1G	1d	.	.
=188	=188	=188	=188	=188	=188
0r	0r	1.A	1c	0r	0r
.	.	.	1c	.	.
.	.	2G/	.	.	.
=189.	=189.	=189.	=189.	=189.	=189.
0r	0r	2F/	1c	0r	0r
.	.	4E/	.	.	.
.	.	4D/	.	.	.
.	.	1E	1c	.	.
=190	=190	=190	=190	=190	=190
0r	0r	[0D	1.d	1.f	0r
.	.	.	2c\	2f/	.
=191.	=191.	=191.	=191.	=191.	=191.
0r	0r	0D]	2B\	1f	0r
.	.	.	4A/	.	.
.	.	.	4G/	.	.
.	.	.	1A	1f	.
=192	=192	=192	=192	=192	=192
1.G	0r	0r	[0G	2.g/	1.b
.	.	.	.	4f/	.
.	.	.	.	2d/	.
2G\	.	.	.	[2g/	2b\
=193.	=193.	=193.	=193.	=193.	=193.
1G	0r	0r	0G]	2g/]	1b
.	.	.	.	4f/	.
.	.	.	.	4e/	.
1G	.	.	.	1d	1b
=194	=194	=194	=194	=194	=194
2.A\	1.c	0r	0r	0c	2.cc\
4G\	.	.	.	.	4b\
2E\	.	.	.	.	2g/
[2A\	2c\	.	.	.	[2cc\
=195.	=195.	=195.	=195.	=195.	=195.
2A\]	1c	0r	0r	1.e	2cc\]
4G\	.	.	.	.	4b\
4F\	.	.	.	.	4a/
1E	1c	.	.	.	1g
.	.	.	.	2e/	.
=196	=196	=196	=196	=196	=196
[0D	2.d\	1.F	0r	1f	0f
.	4c\	.	.	.	.
.	2A\	.	.	1f	.
.	[2d\	2F/	.	.	.
=197.	=197.	=197.	=197.	=197.	=197.
0D]	2d\]	1D	0r	0f	1.a
.	4c\	.	.	.	.
.	4B\	.	.	.	.
.	1A	1D	.	.	.
.	.	.	.	.	2a/
=198	=198	=198	=198	=198	=198
1.GG	[0G	0G	1.B	0g	1b
.	.	.	.	.	1b
2GG/	.	.	2B\	.	.
=199.	=199.	=199.	=199.	=199.	=199.
1GG	0G]	1G	1G	1r	0b
1BB	.	1G	1G	1g	.
=200	=200	=200	=200	=200	=200
0AA	1.C	1E	0c	1.a	0cc
.	.	1E	.	.	.
.	2C/	.	.	2g/	.
=201.	=201.	=201.	=201.	=201.	=201.
0AA	1C	1A	1c	1f	1r
.	1E	1A	1c	1e	1cc
=202	=202	=202	=202	=202	=202
0r	0D	1.F	1A	2.f/	1.dd
.	.	.	.	4e/	.
.	.	.	1A	4f/	.
.	.	.	.	4g/	.
.	.	4E/	.	[2a/	2cc\
.	.	4D/	.	.	.
=203.	=203.	=203.	=203.	=203.	=203.
0r	0D	2F/	1d	4a/]	1b
.	.	.	.	4g/	.
.	.	2G/	.	2.g/	.
.	.	1A	1d	.	1a
.	.	.	.	4f#i/	.
.	.	.	.	2f#i/	.
=204	=204	=204	=204	=204	=204
0r	0r	0G	1.B	0g	2.b\
.	.	.	.	.	4a/
.	.	.	.	.	4b\
.	.	.	.	.	4cc\
.	.	.	4A/	.	[2dd\
.	.	.	4G/	.	.
=205.	=205.	=205.	=205.	=205.	=205.
0r	0r	0r	2B\	0r	4dd\]
.	.	.	.	.	4cc\
.	.	.	2c\	.	2.cc\
.	.	.	1d	.	.
.	.	.	.	.	4b\
.	.	.	.	.	2b\
=206	=206	=206	=206	=206	=206
1.C	0r	1.G	0c	2.g/	0cc
.	.	.	.	4g/	.
.	.	.	.	2g/	.
2C/	.	2G/	.	2g/	.
=207.	=207.	=207.	=207.	=207.	=207.
1C	0r	1G	0r	2e/	0r
.	.	.	.	2.g/	.
1BB	.	1G	.	.	.
.	.	.	.	4f/	.
.	.	.	.	4e/	.
.	.	.	.	4d/	.
=208	=208	=208	=208	=208	=208
1AA	1.F	[0A	1.c	2c/	2.cc\
.	.	.	.	2c/	.
.	.	.	.	.	4cc\
1AA	.	.	.	2A/	2cc\
.	2F\	.	2c\	2A/	2cc\
=209.	=209.	=209.	=209.	=209.	=209.
2AA/	1F	0A]	1c	2.c/	2a/
2AA/	.	.	.	.	2.cc\
.	.	.	.	4d/	.
1AA	1E	.	1c	2e/	.
.	.	.	.	.	4b\
.	.	.	.	2e/	4a/
.	.	.	.	.	4g/
=210	=210	=210	=210	=210	=210
0r	1D	0r	[0d	2f/	2f/
.	.	.	.	2d/	2f/
.	1D	.	.	4f/	2d/
.	.	.	.	4e/	.
.	.	.	.	4d/	2d/
.	.	.	.	4c/	.
=211.	=211.	=211.	=211.	=211.	=211.
1r	2D\	0r	0d]	1B-i	2.f/
.	2D\	.	.	.	.
.	.	.	.	.	4g/
1A	1D	.	.	2A/	2a/
.	.	.	.	2f/	2a/
=212	=212	=212	=212	=212	=212
2G\	0r	0r	0r	2.g/	2b-i\
1E	.	.	.	.	2g/
.	.	.	.	4f/	.
.	.	.	.	2e/	4b-i\
.	.	.	.	.	4a/
2F\	.	.	.	[2d/	4g/
.	.	.	.	.	4f/
=213.	=213.	=213.	=213.	=213.	=213.
2G\	1r	0r	0r	4d/]	1e
.	.	.	.	4c#i/	.
2A\	.	.	.	2c#i/	.
1D	1d	.	.	1d	2d/
.	.	.	.	.	2b\
=214	=214	=214	=214	=214	=214
0r	2c\	0r	0r	0r	2.cc\
.	1A	.	.	.	.
.	.	.	.	.	4b\
.	.	.	.	.	2a/
.	2B\	.	.	.	[2g/
=215.	=215.	=215.	=215.	=215.	=215.
0r	2c\	0r	0r	0r	4g/]
.	.	.	.	.	4f#i/
.	2d\	.	.	.	2f#i/
.	1G	.	.	.	1g
=216	=216	=216	=216	=216	=216
*M3/1	*M3/1	*M3/1	*M3/1	*M3/1	*M3/1
*met(3)	*met()	*met(3)	*met()	*met(3)	*met()
!!primary-mensuration: met(3)
!	!LO:N:vis=0	!	!LO:N:vis=0	!	!LO:N:vis=0
1G	0.r	1.G	0.r	1d	0.r
1G	.	.	.	1d	.
.	.	2A/	.	.	.
1G	.	1B	.	1d	.
=217.	=217.	=217.	=217.	=217.	=217.
!	!LO:N:vis=0	!	!LO:N:vis=0	!	!LO:N:vis=0
1C	0.r	1E	0.r	1.e	0.r
1C	.	1A	.	.	.
.	.	.	.	2c/	.
1C	.	1G	.	2e/	.
.	.	.	.	2f/	.
=218	=218	=218	=218	=218	=218
*	*M3/1	*	*M3/1	*	*M3/1
*	*met(3)	*	*met(3)	*	*met(3)
1C	1c	2E/	1.c	1g	1g
.	.	2F/	.	.	.
0C	1c	2G/	.	2g/	1g
.	.	2A/	2d\	1f	.
.	1c	1G	1e	.	1g
.	.	.	.	2e/	.
=219.	=219.	=219.	=219.	=219.	=219.
0.F	1F	0.F	1A	0.f	1.a
.	1F	.	1d	.	.
.	.	.	.	.	2f/
.	1F	.	1c	.	2a/
.	.	.	.	.	2b\
=220	=220	=220	=220	=220	=220
1r	1F	0.r	2A/	1r	1cc
.	.	.	2B-i\	.	.
1r	0F	.	2c\	1r	2cc\
.	.	.	2d\	.	1b-i
1F	.	.	1c	1f	.
.	.	.	.	.	2a/
=221.	=221.	=221.	=221.	=221.	=221.
1.G	0.B-i	0.r	0.B-i	1.d	0.b-i
2F\	.	.	.	2e/	.
1D	.	.	.	1f	.
=222	=222	=222	=222	=222	=222
1C	1r	1r	0.r	1.g	1r
0GG	1r	1r	.	.	1r
.	.	.	.	2f/	.
.	1B-i	1G	.	1d	1b-i
=223.	=223.	=223.	=223.	=223.	=223.
0C	1.c	2G/	0.r	1.e	1.g
.	.	1G	.	.	.
.	2B-i\	2G/	.	2f/	2a/
1r	1G	1G	.	1g	1b-i
=224	=224	=224	=224	=224	=224
0.r	1F	1c	1r	1a	1.cc
.	0C	2A/	1r	2f/	.
.	.	2F/	.	1f	2b-i\
.	.	1G	1c	.	1g
.	.	.	.	2e/	.
=225.	=225.	=225.	=225.	=225.	=225.
0.r	0F	0.F	2c\	0.f	1.a
.	.	.	1c	.	.
.	.	.	2c\	.	2b-i\
.	1r	.	1c	.	1cc
=226	=226	=226	=226	=226	=226
0.r	0.r	1r	1f	0.r	1dd
.	.	1r	2d\	.	2b-i\
.	.	.	2B-i\	.	1b-i
.	.	1F	1c	.	.
.	.	.	.	.	2a/
=227.	=227.	=227.	=227.	=227.	=227.
0.r	0.r	1.G	0.B-i	0d	0.b-i
.	.	2F/	.	.	.
.	.	2E/	.	1g	.
.	.	2D/	.	.	.
=228	=228	=228	=228	=228	=228
0.r	0.r	1C	1r	1e	0.r
.	.	0D	1r	0f	.
.	.	.	1B	.	.
=229.	=229.	=229.	=229.	=229.	=229.
0.r	0.r	0.C	1.c	1e	0g
.	.	.	.	2c/	.
.	.	.	2B-i\	2d/	.
.	.	.	2A/	1e	1cc
.	.	.	2G/	.	.
=230	=230	=230	=230	=230	=230
0.r	0.r	0.r	1F	1.f	1a
.	.	.	0G	.	0b-i
.	.	.	.	2e/	.
.	.	.	.	1e	.
=231.	=231.	=231.	=231.	=231.	=231.
0D	0.r	1.F	0.F	1f	1a
.	.	.	.	2d/	2f/
.	.	2F/	.	2e/	2g/
1D	.	1F	.	1f	1a
=232	=232	=232	=232	=232	=232
2GG/	0.r	1D	0.r	1.g	1.b-i
2AA/	.	.	.	.	.
2BB-i/	.	1E	.	.	.
2C/	.	.	.	2f/	2a/
1D	.	1F	.	1f	1a
=233.	=233.	=233.	=233.	=233.	=233.
0.GG	0G	0.D	1.B-i	1.g	1b-i
.	.	.	.	.	2g/
.	.	.	2B-i\	2f/	2a/
.	1G	.	1B-i	1d	1b-i
=234	=234	=234	=234	=234	=234
0.r	2C/	1r	1G	1c	1.cc
.	2D\	.	.	.	.
.	2E\	1r	1A	0d	.
.	2F\	.	.	.	2b-i\
.	1G	1G	1B-i	.	1b-i
=235.	=235.	=235.	=235.	=235.	=235.
0C	0.C	1c	0.G	2c/	1.cc
.	.	.	.	2d/	.
.	.	1.c	.	2e/	.
.	.	.	.	2f/	2b-i\
1C	.	.	.	1e	1g
.	.	2B-i\	.	.	.
=236	=236	=236	=236	=236	=236
1D	0.r	1.A	1r	0d	1f
0E	.	.	1r	.	0g
.	.	2G/	.	.	.
.	.	1G	1c	1c#i	.
=237.	=237.	=237.	=237.	=237.	=237.
0.D	0F	0.A	1f	0.d	2f/
.	.	.	.	.	2g/
.	.	.	1.f	.	2a/
.	.	.	.	.	2b-i\
.	1F	.	.	.	1a
.	.	.	2e\	.	.
=238	=238	=238	=238	=238	=238
0.r	1G	0.r	1.d	0.r	0g
.	0A	.	.	.	.
.	.	.	2c\	.	.
.	.	.	1c	.	1f#i
=239.	=239.	=239.	=239.	=239.	=239.
*M2/1	*	*M2/1	*	*M2/1	*
*met(C|)	*	*met(C|)	*	*met(C|)	*
!!primary-mensuration: met(C|)
!	!LO:N:vis=0.	!	!LO:N:vis=0.	!	!LO:N:vis=0.
0GG	0G	1r	0d	1r	0g
.	.	1G	.	1g	.
=240	=240	=240	=240	=240	=240
!	!LO:N:vis=0.	!	!LO:N:vis=0.	!	!LO:N:vis=0.
0GG	0r	0G	0r	1.g	0r
.	.	.	.	2e/	.
=241.	=241.	=241.	=241.	=241.	=241.
*	*M2/1	*	*M2/1	*	*M2/1
*	*met(C|)	*	*met(C|)	*	*met(C|)
[0AA	0C	1C	1r	0e	1r
.	.	2.C/	1c	.	1cc
.	.	4D/	.	.	.
=242	=242	=242	=242	=242	=242
0AA]	0C	2E/	0c	1e	1.cc
.	.	2F/	.	.	.
.	.	2E/	.	1e	.
.	.	[2A/	.	.	2a/
=243.	=243.	=243.	=243.	=243.	=243.
1r	[0D	2A/]	1F	1f	0a
.	.	2D/	.	.	.
1D	.	1D	2.F/	2f/	.
.	.	.	.	[2a/	.
.	.	.	4G/	.	.
=244	=244	=244	=244	=244	=244
0D	0D]	2F/	2A/	2a/]	1a
.	.	2G/	2B-i\	2.g/	.
.	.	1A	2A/	.	1a
.	.	.	.	4f#i/	.
.	.	.	[2d\	2f#i/	.
=245.	=245.	=245.	=245.	=245.	=245.
[0GG	1r	0G	2d\]	[0g	1b
.	.	.	2G/	.	.
.	1G	.	1G	.	2b\
.	.	.	.	.	[2dd\
=246	=246	=246	=246	=246	=246
0GG]	0G	1r	2B\	0g]	2dd\]
.	.	.	2c\	.	2.cc\
.	.	[1G	1d	.	.
.	.	.	.	.	4b\
.	.	.	.	.	2b\
=247.	=247.	=247.	=247.	=247.	=247.
1r	[0C	2G/]	0c	[0e	[0cc
.	.	2F/	.	.	.
[1C	.	2E/	.	.	.
.	.	2D/	.	.	.
=248	=248	=248	=248	=248	=248
2C/]	0C]	1C	1r	1e]	0cc]
2BB/	.	.	.	.	.
2AA/	.	1C	[1c	1e	.
2GG/	.	.	.	.	.
=249.	=249.	=249.	=249.	=249.	=249.
0FF	1r	0r	2c\]	0f	[0a
.	.	.	2B\	.	.
.	[1F	.	2A/	.	.
.	.	.	2G/	.	.
=250	=250	=250	=250	=250	=250
0FF	2F\]	0r	1F	1.f	1a]
.	2E\	.	.	.	.
.	2D\	.	1F	.	1a
.	2C/	.	.	4e/	.
.	.	.	.	4d/	.
=251.	=251.	=251.	=251.	=251.	=251.
[0GG	0BB-i	1G	0r	0d	0b-i
.	.	2G/	.	.	.
.	.	[2G/	.	.	.
=252	=252	=252	=252	=252	=252
0GG]	0BB-i	2G/]	0r	1r	1.b-i
.	.	4F/	.	.	.
.	.	4E/	.	.	.
.	.	1D	.	1d	.
.	.	.	.	.	4a/
.	.	.	.	.	4g/
=253.	=253.	=253.	=253.	=253.	=253.
1r	[0C	[0E	1c	1g	0g
[1C	.	.	2c\	2e/	.
.	.	.	[2c\	[2e/	.
=254	=254	=254	=254	=254	=254
2C/]	0C]	0E]	2c\]	2e/]	1r
2D\	.	.	4B\	2d/	.
.	.	.	4A/	.	.
1E	.	.	1G	2c/	1g
.	.	.	.	2B/	.
=255.	=255.	=255.	=255.	=255.	=255.
0AA	1r	2r	[0A	1A	1cc
.	.	2.A/	.	.	.
.	[1F	.	.	[1d	2a/
.	.	4G/	.	.	.
.	.	[2F/	.	.	[2a/
=256	=256	=256	=256	=256	=256
0AA	2F\]	2F/]	0A]	1d]	2a/]
.	2G\	4E/	.	.	2g/
.	.	4D/	.	.	.
.	1A	2E/	.	1c	2f/
.	.	2A/	.	.	2e/
=257.	=257.	=257.	=257.	=257.	=257.
1BB-	0D	2F/	2r	[0d	1d
.	.	1D	2.d\	.	.
1GG	.	.	.	.	[1g
.	.	.	4c\	.	.
.	.	[2d\	[2B\	.	.
=258	=258	=258	=258	=258	=258
0D	[0Dl	2d\]	2B\]	0d]	1g]
.	.	4c\	4A/	.	.
.	.	4B\	4G/	.	.
.	.	1A	2A/	.	1f#i
.	.	.	2d\	.	.
=259.	=259.	=259.	=259.	=259.	=259.
[0GGl	0D_	1G	[0Bl	[0dl	[0g
.	.	1G	.	.	.
=260	=260	=260	=260	=260	=260
0GG_	0D_	[0Gl	0B_	0d_	0g]
=261.	=261.	=261.	=261.	=261.	=261.
0GG]	0D]	0G]	0B]	0d]	0gl
==	==	==	==	==	==
*-	*-	*-	*-	*-	*-
!!!RDF**kern: l=long note in original notation
!!!RDF**kern: i=editorial accidental
!!!ENC:	Chris Gage 12-21-2012
!!!END:	2013/07/18/
!!!EED:	Jesse Rodin
!!!EEV:	2013/07/19/
!!!ONB:	Translated from MusicXML and edited on 2013/07/19/ by Craig Sapp
!!muse2ps: T^@{OPR}^u^@{ONM}{. }@{OTL}^C^@{COM}^i2I150v100,100,100,100,100,130Q16c85
